X: 3
T: Out On the Ocean   [A]
I: RJ j-73 A jig
S: O'Neill "Music of Ireland" 1903
N: Usually played in G.
R: Jig
M: 6/8
K: A
|:\
"A"E2c cBA | cec "A/C#"BcB | "D"AFE "Bm"A2B | "E7"cec BAF |\
"A"E2c cBA | cec "A/C#"BcB | "D"AFE "Bm"A2B | "E7"cAG [1 "A"A2F :|[2 "A"Ace |]
[|\
"F#m"f3 fec | "D"fgf fec | "C#m"efe ecB | "E7sus4"e2e ecB |\
"A"A2B "A/C#"c2e | "D"faf "D#dim"ecB | "E7"AFE A2B | cAG "C#7/F"Ace |]
[|\
"F#m"f3 fec | "D"fgf fec | "C#m"efe efg | "E7"agf ecB |\
"A"A2B "A/C#"c2e | "D"faf "A/C#"ecB | "D"AFE "Bm"A2B | "E7"cAG "A"A3 |]
% text 07/29/05


